src/next/cmd/sc_statusbarvisible.svg

<svg height="16" width="16" xmlns="http://www.w3.org/2000/svg" xmlns:xlink="http://www.w3.org/1999/xlink"><linearGradient id="a" gradientTransform="matrix(0 2.0000008 -2.1538462 0 681.88699 -135.25738)" gradientUnits="userSpaceOnUse" x1="137.25784" x2="137.25784" y1="260.75122" y2="312.87741"><stop offset="0" stop-color="#b3b3b6"/><stop offset="1" stop-color="#cecece"/></linearGradient><linearGradient id="b" gradientTransform="matrix(.1133598 0 0 .1691546 .642795 -84.95463)" gradientUnits="userSpaceOnUse" x1="399.77466" x2="399.77466" y1="681.00012" y2="549.33234"><stop offset="0" stop-color="#cbcbcd"/><stop offset=".5" stop-color="#e0e0e2"/><stop offset="1" stop-color="#fff"/></linearGradient><filter id="c"><feGaussianBlur stdDeviation="2.4"/></filter><g transform="scale(.125)"><rect filter="url(#c)" height="120" opacity=".4" rx="1.85197" ry="2.186269" transform="matrix(1 0 0 .9333333 -79.62865 -213.35102)" width="120" x="83.628647" y="232.8761"/><path d="m7.999997 8h112.000003v104h-112.000003z" fill="url(#b)"/><path d="m78.20266 29.61897v-2.7448z" fill="#fff" fill-opacity=".756881"/><path d="m8 32h112v80h-112z" fill="#fff"/><g fill-rule="evenodd"><path d="m4 10-1 1-1 1-1 1v1h1l3-3 1-1zm4 0-1 1-3 3h2l2-2 1-1 1-1zm4 0-4 4h1 1l4-4zm3 1-3 3h2l1-1z" fill="#ddd" stroke-width=".125" transform="scale(8)"/><path d="m120 80v8h-112v-8z" fill="url(#a)" stroke-width="1.183216"/></g></g></svg>

<?xml version="1.0" encoding="UTF-8" standalone="no"?>
<svg
   xmlns:dc="http://purl.org/dc/elements/1.1/"
   xmlns:cc="http://creativecommons.org/ns#"
   xmlns:rdf="http://www.w3.org/1999/02/22-rdf-syntax-ns#"
   xmlns:svg="http://www.w3.org/2000/svg"
   xmlns="http://www.w3.org/2000/svg"
   xmlns:sodipodi="http://sodipodi.sourceforge.net/DTD/sodipodi-0.dtd"
   xmlns:inkscape="http://www.inkscape.org/namespaces/inkscape"
   height="16"
   width="16"
   version="1.1"
   id="svg41"
   sodipodi:docname="sc_statusbarvisible.svg"
   inkscape:version="0.92.4 (unknown)"
   inkscape:export-filename="/home/rizmut/Dokumen/Rizmut/Github/libreoffice-style-karasa-jaga/build/next/cmd/sc_statusbarvisible.png"
   inkscape:export-xdpi="96"
   inkscape:export-ydpi="96">
  <metadata
     id="metadata47">
    <rdf:RDF>
      <cc:Work
         rdf:about="">
        <dc:format>image/svg+xml</dc:format>
        <dc:type
           rdf:resource="http://purl.org/dc/dcmitype/StillImage" />
        <dc:title></dc:title>
      </cc:Work>
    </rdf:RDF>
  </metadata>
  <defs
     id="defs45" />
  <sodipodi:namedview
     pagecolor="#ffffff"
     bordercolor="#666666"
     borderopacity="1"
     objecttolerance="10"
     gridtolerance="10"
     guidetolerance="10"
     inkscape:pageopacity="0"
     inkscape:pageshadow="2"
     inkscape:window-width="1366"
     inkscape:window-height="714"
     id="namedview43"
     showgrid="true"
     inkscape:zoom="20.85965"
     inkscape:cx="4.9723336"
     inkscape:cy="2.9074303"
     inkscape:window-x="0"
     inkscape:window-y="28"
     inkscape:window-maximized="1"
     inkscape:current-layer="g39">
    <inkscape:grid
       type="xygrid"
       id="grid854" />
  </sodipodi:namedview>
  <linearGradient
     id="a"
     gradientTransform="matrix(0,2.0000008,-2.1538462,0,681.88699,-135.25738)"
     gradientUnits="userSpaceOnUse"
     x1="137.25784"
     x2="137.25784"
     y1="260.75122"
     y2="312.87741">
    <stop
       offset="0"
       stop-color="#b3b3b6"
       id="stop2" />
    <stop
       offset="1"
       stop-color="#cecece"
       id="stop4" />
  </linearGradient>
  <linearGradient
     id="b"
     gradientTransform="matrix(.1133598 0 0 .1691546 .642795 -84.95463)"
     gradientUnits="userSpaceOnUse"
     x1="399.77466"
     x2="399.77466"
     y1="681.00012"
     y2="549.33234">
    <stop
       offset="0"
       stop-color="#cbcbcd"
       id="stop7" />
    <stop
       offset=".5"
       stop-color="#e0e0e2"
       id="stop9" />
    <stop
       offset="1"
       stop-color="#fff"
       id="stop11" />
  </linearGradient>
  <filter
     id="c">
    <feGaussianBlur
       stdDeviation="2.4"
       id="feGaussianBlur14" />
  </filter>
  <g
     transform="scale(.125)"
     id="g39">
    <rect
       filter="url(#c)"
       height="120"
       opacity=".4"
       rx="1.85197"
       ry="2.186269"
       transform="matrix(1 0 0 .9333333 -79.62865 -213.35102)"
       width="120"
       x="83.628647"
       y="232.8761"
       id="rect17" />
    <path
       d="m7.999997 8h112.000003v104h-112.000003z"
       fill="url(#b)"
       id="path19" />
    <path
       d="m78.20266 29.61897v-2.7448z"
       fill="#fff"
       fill-opacity=".756881"
       id="path21" />
    <path
       d="m8 32h112v80h-112z"
       fill="#fff"
       id="path23" />
    <path
       style="fill:#dddddd;fill-rule:evenodd;stroke-width:0.125"
       d="M 4 10 L 3 11 L 2 12 L 1 13 L 1 14 L 2 14 L 5 11 L 6 10 L 4 10 z M 8 10 L 7 11 L 4 14 L 6 14 L 8 12 L 9 11 L 10 10 L 8 10 z M 12 10 L 8 14 L 9 14 L 10 14 L 14 10 L 12 10 z M 15 11 L 12 14 L 14 14 L 15 13 L 15 11 z "
       transform="scale(8)"
       id="path25" />
    <path
       inkscape:connector-curvature="0"
       style="fill:url(#a);fill-rule:evenodd;stroke-width:1.18321598"
       id="path35"
       d="m 120,80 v 8 H 8 v -8 z" />
  </g>
</svg>
